icons/op-nextcloud-24.svg

<svg width="24" height="24" viewBox="0 0 24 24" fill="none" xmlns="http://www.w3.org/2000/svg">
<path d="M12.0137 7.89999C10.148 7.89999 8.56658 9.16485 8.07646 10.8786C7.65049 9.9696 6.7274 9.33277 5.66417 9.33277C4.20197 9.33277 3 10.5347 3 11.9969C3 13.4591 4.20197 14.6617 5.66417 14.6617C6.7274 14.6617 7.65049 14.0244 8.07646 13.1153C8.56658 14.8292 10.148 16.0944 12.0137 16.0944C13.8657 16.0944 15.439 14.8482 15.9417 13.1537C16.3755 14.0422 17.2872 14.6617 18.3353 14.6617C19.7975 14.6617 21 13.4591 21 11.9969C21 10.5347 19.7975 9.33277 18.3353 9.33277C17.2872 9.33277 16.3755 9.95183 15.9417 10.8402C15.439 9.14577 13.8657 7.89999 12.0137 7.89999ZM12.0137 9.46392C13.4222 9.46392 14.5473 10.5885 14.5473 11.9969C14.5473 13.4054 13.4222 14.5305 12.0137 14.5305C10.6053 14.5305 9.48071 13.4054 9.48071 11.9969C9.48071 10.5885 10.6053 9.46392 12.0137 9.46392ZM5.66417 10.8967C6.28123 10.8967 6.76495 11.3799 6.76495 11.9969C6.76495 12.614 6.28123 13.0977 5.66417 13.0977C5.0471 13.0977 4.56393 12.614 4.56393 11.9969C4.56393 11.3799 5.0471 10.8967 5.66417 10.8967ZM18.3353 10.8967C18.9524 10.8967 19.4361 11.3799 19.4361 11.9969C19.4361 12.614 18.9524 13.0977 18.3353 13.0977C17.7182 13.0977 17.235 12.614 17.235 11.9969C17.235 11.3799 17.7182 10.8967 18.3353 10.8967Z" fill="black"/>
</svg>

<svg xmlns="http://www.w3.org/2000/svg" width="24" height="24" viewBox="0 0 24 24"><path d="M12.014 7.9c-1.866 0-3.447 1.265-3.938 2.979a2.675 2.675 0 0 0-2.412-1.546A2.676 2.676 0 0 0 3 11.997a2.677 2.677 0 0 0 2.664 2.665 2.676 2.676 0 0 0 2.412-1.547c.491 1.714 2.072 2.979 3.938 2.979 1.852 0 3.425-1.246 3.928-2.94a2.673 2.673 0 0 0 2.393 1.508A2.678 2.678 0 0 0 21 11.997a2.677 2.677 0 0 0-2.665-2.664c-1.048 0-1.96.619-2.393 1.507-.503-1.694-2.076-2.94-3.928-2.94Zm0 1.564a2.52 2.52 0 0 1 2.533 2.533 2.521 2.521 0 0 1-2.533 2.533 2.52 2.52 0 0 1-2.533-2.533 2.52 2.52 0 0 1 2.533-2.533Zm-6.35 1.433c.617 0 1.101.483 1.101 1.1a1.09 1.09 0 0 1-1.101 1.101c-.617 0-1.1-.484-1.1-1.101s.483-1.1 1.1-1.1Zm12.671 0c.617 0 1.101.483 1.101 1.1a1.09 1.09 0 0 1-1.101 1.101c-.617 0-1.1-.484-1.1-1.101s.483-1.1 1.1-1.1Z"/></svg>
